src/assets/compendia/icons/tokens-core/faction-klingon-rank-3-token.svg

<svg xmlns="http://www.w3.org/2000/svg" xml:space="preserve" style="fill-rule:evenodd;clip-rule:evenodd;stroke-linecap:round;stroke-miterlimit:1.5" viewBox="0 0 256 256"><path d="M0 0h256v256H0z" style="fill:none"/><g><circle cx="128" cy="128" r="128"/><path d="M128 0c70.645 0 128 57.355 128 128s-57.355 128-128 128S0 198.645 0 128 57.355 0 128 0m0 8C61.77 8 8 61.77 8 128s53.77 120 120 120 120-53.77 120-120S194.23 8 128 8" style="fill:#d23a2d"/><path d="M1022.85 23.056c1.28-6.72 2.2-15.556 2.2-15.556s.92 8.803 2.21 15.51c4.33.962 7.57 4.827 7.57 9.449 0 .837-.11 1.649-.31 2.424 2.85 1.245 5.74 1.297 5.74 1.297s-3.87 2.718-8.38 3.233a9.63 9.63 0 0 1-6.73 2.725 9.67 9.67 0 0 1-7.26-3.275c-3.12 1.353-5.08 3.748-5.09 3.633-.39-4.662 1.09-6.884 2.84-8.236a9.7 9.7 0 0 1-.17-1.801c0-4.552 3.14-8.369 7.38-9.403m4.58.825c.61 3.039 1.3 5.516 2 6.321l-4.36 7.037-4.38-7.011c.69-.802 1.37-3.266 1.98-6.293-3.69 1.075-6.4 4.489-6.4 8.524 0 .438.04.869.1 1.29 1.55-.989 3.14-1.487 3.74-2.512l4.61 7.111c-2.24-.645-4.28-.407-6.02.2a8.85 8.85 0 0 0 6.45 2.786c2.03 0 3.9-.686 5.4-1.838-1.67.015-3.39-.325-4.99-1.256l4.51-7.123c.9 1.578 2.27 2.664 3.71 3.413a8.8 8.8 0 0 0 .24-2.071c0-4.106-2.8-7.57-6.59-8.578" style="fill:#d23a2d;fill-rule:nonzero" transform="translate(-5143.14 -12.571)scale(5.14286)"/><circle cx="1928" cy="1439" r="9" style="fill:#d23a2d;stroke:#d23a2d;stroke-width:8px" transform="rotate(7 10837.98 -13986.936)"/><circle cx="1928" cy="1439" r="9" style="fill:none;stroke:#d23a2d;stroke-width:8px" transform="rotate(-7 -8781.932 15442.9)"/></g></svg>

<?xml version="1.0" encoding="UTF-8" standalone="no"?>
<!DOCTYPE svg PUBLIC "-//W3C//DTD SVG 1.1//EN" "http://www.w3.org/Graphics/SVG/1.1/DTD/svg11.dtd">
<svg width="100%" height="100%" viewBox="0 0 256 256" version="1.1" xmlns="http://www.w3.org/2000/svg" xmlns:xlink="http://www.w3.org/1999/xlink" xml:space="preserve" xmlns:serif="http://www.serif.com/" style="fill-rule:evenodd;clip-rule:evenodd;stroke-linecap:round;stroke-miterlimit:1.5;">
    <g transform="matrix(1,0,0,1,-2100,-1800)">
        <g transform="matrix(1,0,0,1,2100,1800)">
            <rect id="faction-klingon-rank-3-token" x="0" y="0" width="256" height="256" style="fill:none;"/>
            <g id="faction-klingon-rank-3-token1" serif:id="faction-klingon-rank-3-token">
                <circle cx="128" cy="128" r="128"/>
                <path d="M128,0C198.645,0 256,57.355 256,128C256,198.645 198.645,256 128,256C57.355,256 0,198.645 0,128C0,57.355 57.355,0 128,0ZM128,8C61.77,8 8,61.77 8,128C8,194.23 61.77,248 128,248C194.23,248 248,194.23 248,128C248,61.77 194.23,8 128,8Z" style="fill:rgb(210,58,45);"/>
                <g transform="matrix(5.14286,0,0,5.14286,-5143.14,-12.5714)">
                    <g id="Klingon">
                        <path id="Klingon1" serif:id="Klingon" d="M1022.85,23.056C1024.13,16.336 1025.05,7.5 1025.05,7.5C1025.05,7.5 1025.97,16.303 1027.26,23.01C1031.59,23.972 1034.83,27.837 1034.83,32.459C1034.83,33.296 1034.72,34.108 1034.52,34.883C1037.37,36.128 1040.26,36.18 1040.26,36.18C1040.26,36.18 1036.39,38.898 1031.88,39.413C1030.14,41.1 1027.77,42.138 1025.15,42.138C1022.26,42.138 1019.67,40.871 1017.89,38.863C1014.77,40.216 1012.81,42.611 1012.8,42.496C1012.41,37.834 1013.89,35.612 1015.64,34.26C1015.53,33.677 1015.47,33.074 1015.47,32.459C1015.47,27.907 1018.61,24.09 1022.85,23.056ZM1027.43,23.881C1028.04,26.92 1028.73,29.397 1029.43,30.202L1025.07,37.239L1020.69,30.228C1021.38,29.426 1022.06,26.962 1022.67,23.935C1018.98,25.01 1016.27,28.424 1016.27,32.459C1016.27,32.897 1016.31,33.328 1016.37,33.749C1017.92,32.76 1019.51,32.262 1020.11,31.237L1024.72,38.348C1022.48,37.703 1020.44,37.941 1018.7,38.548C1020.32,40.262 1022.61,41.334 1025.15,41.334C1027.18,41.334 1029.05,40.648 1030.55,39.496C1028.88,39.511 1027.16,39.171 1025.56,38.24L1030.07,31.117C1030.97,32.695 1032.34,33.781 1033.78,34.53C1033.94,33.865 1034.02,33.172 1034.02,32.459C1034.02,28.353 1031.22,24.889 1027.43,23.881Z" style="fill:rgb(210,58,45);fill-rule:nonzero;"/>
                    </g>
                </g>
                <g transform="matrix(0.992546,0.121869,-0.121869,0.992546,-1623.79,-1425.07)">
                    <circle cx="1928" cy="1439" r="9" style="fill:rgb(210,58,45);stroke:rgb(210,58,45);stroke-width:8px;"/>
                </g>
                <g transform="matrix(0.992546,-0.121869,0.121869,0.992546,-1947.47,-955.137)">
                    <circle cx="1928" cy="1439" r="9" style="fill:none;stroke:rgb(210,58,45);stroke-width:8px;"/>
                </g>
            </g>
        </g>
    </g>
</svg>
